X: 73
T:Virginia Reel, The
M:C|
L:1/8
R:Reel
K:EDor
DBBA ~B3A|BAdB AFEF|DF~F2 A3B|AFBF AFEF|!
DBBA ~B3A|BAdB ABde|fgfe defe|dBAF BE~E2:|!
|:defe ~d3A|BAFA DAFA|defe defg|a2bf afeg|!
fedf efdB|AF~F2 ABde|fgfe defe|dBAF BE~E2:|]!
